!! 00000] TT[00
!! NN
!!!OTL: Wang yanan, An Yan'an die Blicke schweifen lassen)
!!!ARE: Asia, China, bei Shanxi, Qinyuan
!! Ethnic Group: Han
!! I, 300
!!!SCT: C0078
!!!YEM: Copyright 1995, estate of Helmut Schaffrath.
**kern
*ICvox
*Ivox
*M2/4
*k[f#]
*G:
{8g
8g
8g
8e
=1
4dd
8b
8dd
=2
8ee
8gg
8dd
8cc
=3
8b
16b
16f#
4a}
=4
{8b
16a
16b
4dd
=5
8gg
8b
8a
8g
=6
8e
16d
16e
8f#
8e
=7
2d}
=8
{8g
8d
8g
8a
=9
8b
8b
8dd
8b
=10
8a
8g
8g
8d
=11
2e}
=12
{8.ee
16gg
8b
8dd
=13
8ee
8gg
8dd
8cc
=14
8b
16a
16b
8g
8a
=15
8.dd
16b
16a
16b
8e
=16
2d}
==
!!!AGN: Xiaodiao, Shidiao, MengjiangnÅ diao, Shuzhuangtai. Geming lishi minge
!! neues Volkslied. Die meng jia n} wird hier als "typischste
!!    Tonart besonders in Nordchina bezeichnet.
!!!ONB: ESAC (Essen Associative Code) Database: CHINA
!!!AMT: simple duple
!!!AIN: vox
!!!EED: Helmut Schaffrath
!!!EEV: 1.0
*-
